X:1
N: EH3 7AF
N: 8x32J 3C (RSCDS Bk 40)
T: The Pentland Jig
C: by Bobby Crowe
C: arr T. Traub 12-22-2001
M: 6/8
R: jig
L: 1/8
%
K: D
FG|"D"A2-A AFG|A2 f f2 e|"G"dce dcB|"D"A2 F F2 A|"G"B2 G G2 B|"D"A2 F F2 A|"E7"^G2 B EGB|"A"cBA =GFG||
"D"A2 A AFG|A2 f f2 e|"G"dce dcB|"D"A2 F F2 A|"G"B2 G dcB|"D"Adf "B7"a2 A|"G"BGd "A"cAe|"D"d3 d2 F ||
"Bm"B2 B B2 F|"Bm"Bcd "E7"dcB|"A"A2 A A2 E|"A"ABc cBA|"G"B2 G G2 B|"D"A2 F F2 A|"E"^G2 B EGB|"A"cBA "A7"=GFG||
"D"A2 A AFG|A2 f f2 e|"G"dce dcB|"D"A2 F F2 A|"G"B2 G dcB|"D"Adf "B7"a2 A|"G"BGd "A"cAe|"D"d3 d2 d |]
